X: 12636
T: Farley Bridge, The
R: reel
M: 4/4
K: Amajor
EAAc BABc|dccc AEED|EAAE ccEB-|BAAc dFFE|
EAAE ABBc|dccc ADDE|BAFB- BcBA|1 FE E6:|2 FE E4Bc||
|:dccA AAFd-|dccA AAED|EAAE ccEB|BAAB- Bccd|
dccA AAFd-|dccA AAFE|BAFB- BcBA|FE E4Bc:|

